X: 41232
T: Trout In The Bath
R: jig
M: 6/8
K: Edorian
E2B BEB|EBE AFD|E2B BEB|d2F FED|
E2B BEB|EFG ABc|def edc|dcB AFD:|
B2B e2e|fed e2d|B2B g2e|edB AGA|
B2B e2e|fed e2f|gfg agf|gfe dBA:|

